icons/fill-new-office-book-notebook-2.svg

<svg xmlns="http://www.w3.org/2000/svg" width="32px" height="32px" viewBox="0 0 32 32" version="1.1">
    <title>fill-new-office-book-notebook-2</title>
    <g id="fill-new-office-book-notebook-2" stroke-width="1" fill-rule="evenodd">
        <path d="M9,2 L9,30 L5,30 C4.44771525,30 4,29.5522847 4,29 L4,3 C4,2.44771525 4.44771525,2 5,2 L9,2 Z M27,2 C27.5522847,2 28,2.44771525 28,3 L28,29 C28,29.5522847 27.5522847,30 27,30 L11,30 L11,2 L27,2 Z M22,21 L16,21 C15.4477153,21 15,21.4477153 15,22 C15,22.5522847 15.4477153,23 16,23 L22,23 C22.5522847,23 23,22.5522847 23,22 C23,21.4477153 22.5522847,21 22,21 Z M22,15 L16,15 C15.4477153,15 15,15.4477153 15,16 C15,16.5522847 15.4477153,17 16,17 L22,17 C22.5522847,17 23,16.5522847 23,16 C23,15.4477153 22.5522847,15 22,15 Z M22,9 L16,9 C15.4477153,9 15,9.44771525 15,10 C15,10.5522847 15.4477153,11 16,11 L22,11 C22.5522847,11 23,10.5522847 23,10 C23,9.44771525 22.5522847,9 22,9 Z" id="&#24418;&#29366;" />
    </g>
</svg>

<svg xmlns="http://www.w3.org/2000/svg" viewBox="0 0 32 32"><path fill="currentColor" d="M9 2v28H5a1 1 0 0 1-1-1V3a1 1 0 0 1 1-1zm18 0a1 1 0 0 1 1 1v26a1 1 0 0 1-1 1H11V2zm-5 19h-6a1 1 0 0 0 0 2h6a1 1 0 0 0 0-2m0-6h-6a1 1 0 0 0 0 2h6a1 1 0 0 0 0-2m0-6h-6a1 1 0 0 0 0 2h6a1 1 0 0 0 0-2"/></svg>
